!!!OTL: Songlang songdao dalushang
!!!ARE: Asia, China,ÿAnhui Dangshan
!! III, 556, 2)
!!!SCT: C2059
!!!YEM: Copyright 1995, estate of Helmut Schaffrath.
**kern
*ICvox
*Ivox
*M2/4
*k[f#c#g#]
*A:
{8bb
8ff#
8bb
8ff#
=1
4eee
4ccc#}
=2
{8ccc#
8ccc#
8eee
8ccc#
=3
4ccc#
4bb}
=4
{8bb
8bb
8ff#
8bb
=5
8gg#
8ff#
4ee}
=6
{8ff#
8ff#
8ff#
8ff#
=7
8eee
8ff#
4aa
=8
2aa}
==
!!!AGN: Xiaodiao, Qingge
!!!AMT: simple duple
!!!AIN: vox
!!!EED: Helmut Schaffrath
!!!EEV: 1.0
*-
